resources/haticons/SVG/add_business.svg

<!-- Generated by IcoMoon.io -->
<svg version="1.1" xmlns="http://www.w3.org/2000/svg" width="24" height="24" viewBox="0 0 24 24">
<title>add_business</title>
<path d="M15 17.016h2.016v-3h0.984v-2.016l-0.984-5.016h-15l-1.031 5.016v2.016h1.031v6h9v-6h3.984v3zM9 18h-5.016v-3.984h5.016v3.984zM2.016 3.984h15v2.016h-15v-2.016zM20.016 18v-3h-2.016v3h-3v2.016h3v3h2.016v-3h3v-2.016h-3z"></path>
</svg>

<svg xmlns="http://www.w3.org/2000/svg" width="24" height="24"><path d="M15 17.016h2.016v-3H18V12l-.984-5.016h-15L.985 12v2.016h1.031v6h9v-6H15v3zM9 18H3.984v-3.984H9V18zM2.016 3.984h15V6h-15V3.984zm18 14.016v-3H18v3h-3v2.016h3v3h2.016v-3h3V18h-3z"/></svg>
